assets/images/squiggle-small.svg

<svg fill="none" height="4" viewBox="0 0 30 4" width="30" xmlns="http://www.w3.org/2000/svg"><path d="m15 2.79187c2.5803 0 2.9243 1.22144 5 1.20802 2.0642.01342 2.4197-1.20802 5-1.20802s2.9358 1.22144 5 1.20802v-2.80529c-2.0642.01342-2.4197-1.1946-5-1.1946s-2.9243 1.20802-5 1.1946c-2.0757.01342-2.4197-1.1946-5-1.1946s-2.9243 1.20802-5 1.1946c-2.06422.01342-2.41972-1.1946-5-1.1946s-2.93578 1.20802-5 1.1946v2.80529c2.06422.01342 2.41972-1.20802 5-1.20802s2.92431 1.22144 5 1.20802c2.0757.01342 2.4197-1.20802 5-1.20802z" fill="#b55a18"/></svg>

<svg width="30" height="4" viewBox="0 0 30 4" fill="none" xmlns="http://www.w3.org/2000/svg">
<path d="M15 2.79187C17.5803 2.79187 17.9243 4.01331 20 3.99989C22.0642 4.01331 22.4197 2.79187 25 2.79187C27.5803 2.79187 27.9358 4.01331 30 3.99989V1.1946C27.9358 1.20802 27.5803 0 25 0C22.4197 0 22.0757 1.20802 20 1.1946C17.9243 1.20802 17.5803 0 15 0C12.4197 0 12.0757 1.20802 10 1.1946C7.93578 1.20802 7.58028 0 5 0C2.41972 0 2.06422 1.20802 0 1.1946V3.99989C2.06422 4.01331 2.41972 2.79187 5 2.79187C7.58028 2.79187 7.92431 4.01331 10 3.99989C12.0757 4.01331 12.4197 2.79187 15 2.79187Z" fill="#B55A18"/>
</svg>
